X:1
T:Here's a health
T:Here's a health
T:anon.
C:anon.
%%score [ 1 2 3 4 ]
L:1/8
Q:1/8=96
M:6/8
K:F
V:1 treble nm="I"
V:2 treble nm="II"
V:3 treble nm="III"
V:4 treble nm="IV"
V:1
|: F/ G/ | A3/2 B/ A G3/2 F/ E | F3 z2 :| %3
w: Here's a|health to all them that we|love,|
V:2
|: A/ B/ | c3/2 d/ c B3/2 A/ G | A3 z2 :| %3
w: Here's a|health to all them that love|us,|
V:3
|: c/ B/ | A3/2 G/ F c3/2 d/ e | f3/2 e/ d c2 :| %3
w: Here's a|health to all them that love|those that love them,|
V:4
|: F/ F/ | C3/2 C/ D B,3/2 B,/ C | F3 z2 :| %3
w: That love|those that love them that love|us.|

